public/static/img/market/up.svg

<svg width="26" height="26" viewBox="0 0 26 26" fill="none" xmlns="http://www.w3.org/2000/svg">
<g clip-path="url(#clip0_64_716)">
<path d="M0 13C0 16.4478 1.36964 19.7544 3.80761 22.1924C6.24558 24.6304 9.55219 26 13 26C16.4478 26 19.7544 24.6304 22.1924 22.1924C24.6304 19.7544 26 16.4478 26 13C26 9.55219 24.6304 6.24558 22.1924 3.80761C19.7544 1.36964 16.4478 0 13 0C9.55219 0 6.24558 1.36964 3.80761 3.80761C1.36964 6.24558 0 9.55219 0 13Z" fill="white"/>
<path fill-rule="evenodd" clip-rule="evenodd" d="M19.9696 7.6814H15.0702V7.68302C15.0119 7.68314 14.9549 7.7005 14.9064 7.7329C14.858 7.76531 14.8202 7.81131 14.7978 7.86515C14.7754 7.91898 14.7694 7.97823 14.7805 8.03545C14.7917 8.09268 14.8196 8.14532 14.8606 8.18677L16.6128 9.93842L13.8596 12.9334L12.6685 11.7147L12.6441 11.6887C12.386 11.4375 12.0386 11.2991 11.6784 11.304C11.3182 11.3088 10.9747 11.4566 10.7234 11.7147L5.65339 16.9196C5.54509 17.0307 5.45975 17.1622 5.40224 17.3063C5.34473 17.4505 5.31618 17.6046 5.31822 17.7598C5.32233 18.0732 5.45079 18.3722 5.67533 18.5909C5.78651 18.6992 5.91793 18.7845 6.06209 18.842C6.20625 18.8995 6.36033 18.9281 6.51553 18.926C6.67072 18.924 6.824 18.8914 6.9666 18.8302C7.1092 18.7689 7.23834 18.6801 7.34664 18.5689H7.34826L11.6984 14.1018L12.9106 15.3449C13.0353 15.4728 13.184 15.5748 13.3481 15.6451C13.5122 15.7154 13.6886 15.7527 13.8671 15.7548C14.0457 15.7569 14.2229 15.7238 14.3886 15.6574C14.5543 15.591 14.7054 15.4925 14.833 15.3677L14.8834 15.3157L18.2857 11.6107L19.7616 13.0861C19.8029 13.1271 19.8554 13.1549 19.9125 13.1661C19.9696 13.1773 20.0287 13.1715 20.0824 13.1493C20.1362 13.1271 20.1822 13.0895 20.2148 13.0413C20.2473 12.9931 20.2649 12.9363 20.2653 12.8781V7.97715C20.2653 7.81465 20.1321 7.6814 19.9696 7.6814Z" fill="#00D77C"/>
</g>
<defs>
<clipPath id="clip0_64_716">
<rect width="26" height="26" fill="white"/>
</clipPath>
</defs>
</svg>

<svg width="26" height="26" fill="none" xmlns="http://www.w3.org/2000/svg"><g clip-path="url(#a)"><path d="M0 13a13 13 0 1 0 26 0 13 13 0 0 0-26 0Z" fill="#fff"/><path fill-rule="evenodd" clip-rule="evenodd" d="M19.97 7.681h-4.9v.002a.296.296 0 0 0-.21.504l1.753 1.751-2.753 2.995-1.191-1.218-.025-.026a1.358 1.358 0 0 0-1.92.026l-5.07 5.205a1.181 1.181 0 1 0 1.693 1.649h.001l4.35-4.467 1.213 1.243a1.358 1.358 0 0 0 1.922.023l.05-.052 3.403-3.705 1.476 1.475a.295.295 0 0 0 .453-.045.296.296 0 0 0 .05-.163v-4.9a.297.297 0 0 0-.295-.297Z" fill="#00D77C"/></g><defs><clipPath id="a"><path fill="#fff" d="M0 0h26v26H0z"/></clipPath></defs></svg>
